X:3622
T:Cuddle me cuddy
R:Slip jig
O:England
M:9/8
N:12/8 in mss 1, 6/4 in mss 3
A:Lancashire
B:Winder
K:G
cde AcA AcA | cde AcA B2G | \
cde AcA AcA | Bcd dgd B2G :|*
cde ege ege | cde ege g2e | \
cde ege ege | ded dgd B2G :|**


